X: 1750
T: HIGGINS' BEST
M:C|
L:1/8
B:O'NEILL'S 1750
N:"collected by McElligott
Z:Transcribed by A. LEE WORMAN
K:A
A2 (Ac) eAce|acea ~c'2 (ba)|faea ceaf|ecBA FAEC|
A,2 (Ac) eAce|acea ~c'2 (ba)|faea cefe|ceBe A2 z2:|
A2 (Ac) BAFA|agaf ecBA|dfce BdAc|dBcA BAFA|
EAce acea|d'bc'a bafa|eacf ed'bg|a2 a2 a2 z2:|
